pix_core/f/epub.svg

<svg fill="none" preserveAspectRatio="xMinYMid meet" viewBox="0 0 24 24" xmlns="http://www.w3.org/2000/svg"><g fill="#fff"><path d="m12.3536 9.64645c-.1953-.19527-.5119-.19527-.7072 0l-3.99995 3.99995c-.19527.1953-.19527.5119 0 .7072l3.99995 4c.1953.1952.5119.1952.7072 0l4-4c.1952-.1953.1952-.5119 0-.7072-.1953-.1952-.5119-.1952-.7072 0l-3.6464 3.6465-3.29289-3.2929 3.29289-3.2929 1.3799 1.3799-1.7335 1.7334c-.1952.1952-.1952.5118 0 .7071.1953.1952.5119.1952.7072 0l2.0869-2.087c.1953-.1953.1953-.5118 0-.7071z"/><path clip-rule="evenodd" d="m19.5 19v-10.17157c0-.66304-.2634-1.29893-.7322-1.76777l-3.8285-3.82843c-.4688-.46884-1.1047-.73223-1.7677-.73223h-6.1716c-1.38071 0-2.5 1.11929-2.5 2.5v14c0 1.3807 1.11929 2.5 2.5 2.5h10c1.3807 0 2.5-1.1193 2.5-2.5zm-12.5-15.5c-.82843 0-1.5.67157-1.5 1.5v14c0 .8284.67157 1.5 1.5 1.5h10c.8284 0 1.5-.6716 1.5-1.5v-10c0-.27614-.2239-.5-.5-.5h-3c-.8284 0-1.5-.67157-1.5-1.5v-3c0-.27614-.2239-.5-.5-.5zm10.7929 4-3.2929-3.29289v2.79289c0 .27614.2239.5.5.5z" fill-rule="evenodd"/></g></svg>

<svg viewBox="0 0 24 24" fill="none" xmlns="http://www.w3.org/2000/svg" preserveAspectRatio="xMinYMid meet">
<path  d="M12.3536 9.64645C12.1583 9.45118 11.8417 9.45118 11.6464 9.64645L7.64645 13.6464C7.45118 13.8417 7.45118 14.1583 7.64645 14.3536L11.6464 18.3536C11.8417 18.5488 12.1583 18.5488 12.3536 18.3536L16.3536 14.3536C16.5488 14.1583 16.5488 13.8417 16.3536 13.6464C16.1583 13.4512 15.8417 13.4512 15.6464 13.6464L12 17.2929L8.70711 14L12 10.7071L13.3799 12.087L11.6464 13.8204C11.4512 14.0156 11.4512 14.3322 11.6464 14.5275C11.8417 14.7227 12.1583 14.7227 12.3536 14.5275L14.4405 12.4405C14.6358 12.2452 14.6358 11.9287 14.4405 11.7334L12.3536 9.64645Z" fill="#fff"/>
<path fill-rule="evenodd" clip-rule="evenodd" d="M19.5 19V8.82843C19.5 8.16539 19.2366 7.5295 18.7678 7.06066L14.9393 3.23223C14.4705 2.76339 13.8346 2.5 13.1716 2.5H7C5.61929 2.5 4.5 3.61929 4.5 5V19C4.5 20.3807 5.61929 21.5 7 21.5H17C18.3807 21.5 19.5 20.3807 19.5 19ZM7 3.5C6.17157 3.5 5.5 4.17157 5.5 5V19C5.5 19.8284 6.17157 20.5 7 20.5H17C17.8284 20.5 18.5 19.8284 18.5 19V9C18.5 8.72386 18.2761 8.5 18 8.5H15C14.1716 8.5 13.5 7.82843 13.5 7V4C13.5 3.72386 13.2761 3.5 13 3.5H7ZM17.7929 7.5L14.5 4.20711V7C14.5 7.27614 14.7239 7.5 15 7.5H17.7929Z" fill="#fff"/>
</svg>
